X: 39505
T: Tattoo, The
R: reel
M: 4/4
K: Aminor
E^GB E2GBd|cBA cBA ^GB|E^GB E2GBd|cBAcB2B2|
E^GB E2 GBd|cBA cBA ^GE|DEF^G2FEF|1 EDB,CA,2A,2:|2 ^GABcA2A2||
a^ga e2 dcA|dfe dcd Bc|a^ga e2 dcA|def a^gfec|
Aca e2dcA|dfe dcdBc|DEF^G2 FEF|^GABcA2A2||

